X:1
T:Janitor coeli - Ortiz
T:#
%%score [ 1 2 3 4 ]
L:1/8
Q:1/4=200
M:none
K:C
V:1 treble nm="Soprano" snm="S"
V:2 treble nm="Alto" snm="A"
V:3 treble-8 nm="Tenor" snm="T"
V:4 bass nm="Bass" snm="B"
V:1
"^Janitor coeli""^Diego Ortiz\n(1510-1570)""^Office hymn for the feast of SS Peter & Paul" z16 | %1
w: |
 z16 | z16 | z16 | c8 A8- | A8 G8 | (A6 B2 c4 A4) | B8 z8 | z16 | c8 A8 | G16 | A8 B8- | B8 c8 | %13
w: |||Ja- ni\-|* tor|coe\- * * *|li,||Do- ctor|or-|bis pa\-|* ri-|
 B4 B8 c4 | d8 c8- | c4 B4 A4 A4 | c12 B4 | (A4 G4 F4 E4- | E4) D4 E8- | E16 | z16 | z16 | B8 A8- | %23
w: ter, ju- di-|ces sae\-|* cli, ve- ra|mun- di|lu\- * * *|* mi- na,||||per Cru\-|
 A4 G4 (A8 | B8 c6 B2 | A4 G4 F8- | F4 E4 F8- | F8) (G8 | F8) z8 | z8 d8 | A8 G8 | (A6 B2 c8- | %32
w: * cem al\-||||* ter,||al-|ter en-|se * *|
 c4 B2 A2) B8 | A8 G8- | G8 z4 (A4- | A4 G8) G4 | (F12 E2 D2) | E4 F4 z8 | z8 z4 F4 | G8 (A8- | %40
w: * * * tri-|um- phans|* vi\-|* * tae|se\- * *|na- tum|lau-|re- a\-|
 A4 G2 F2) E4 (G4- |[Q:1/4=198] G4[Q:1/4=196] F2[Q:1/4=195] E2[Q:1/4=193] F4[Q:1/4=190] E4- | %42
w: * * * ti pos\-||
[Q:1/4=188] E4[Q:1/4=185] D4)[Q:1/4=181] E8- |[Q:1/4=177] E8[Q:1/4=172] E8- |[Q:1/4=170] E16 |] %45
w: * * si\-|* dent.||
V:2
 z16 | z16 | z16 | F8 D8 | C8 (D6 E2 | F4 D4) E8 | (E12 F4) | G16 | z4 F4 D8 | (C6 D2 E4) F4 | %10
w: |||Ja- ni-|tor coe\- *|* * li,|coe\- *|li,|Do- ctor|or\- * * bis|
 D8 E8 | A,8 z8 | E12 F4 | G8 G8 | F8 F8- | F4 D4 (F4 E2 D2 | E4 F4 (G6 F2 | E2 D2 E4 D4 C4- | %18
w: pa- ri-|ter,|ju- di-|ces sae-|cli, ve\-|* ra mun\- * *|* di lu\- *||
 C2 B,2 A,8) G,4 | C8 B,8) | z8 E8 | D8 C8 | (D6 E2 F8) | E8 z4 E4- | E4 D4 C8- | %25
w: * * * mi-|na, *|per|Cru- cem|al\- * *|ter, per|* Cru- cem|
 C4 (D6 C2 A,2 B,2) | C8 z4 D4 | A,8 G,8 | A,4 (F6 E2 C2 D2 | E8) (F6 E2 | C4 D4) E8- | E8 z8 | %32
w: * al\- * * *|ter, al-|ter en-|se tri\- * * *|* um\- *|* * phans||
 (E8 D8) | D4 (C8 B,2 A,2) | B,8 (A,6 B,2 | C2 D2 E8) E4 | D4 (A,2 B,2 C6 B,2 | A,2 G,2) A,8 B,4 | %38
w: vi\- *|tae se\- * *|na- tum, *|* * * vi-|tae se\- * * *|* * na- tum|
 z4 C8 D4 | E8 A,4 (F4- | F4 E2 D2 E4) (E4- | E4 D2 C2 D4 C4- | C4 B,2 A,2 B,8 | C8) B,8- | B,16 |] %45
w: lau- re-|a- ti pos\-|* * * * si\-|||* dent.||
V:3
 z16 | c8 A8- | A8 G8 | (A4 c8 B4) | c8 z8 | z8 c8 | A16 | (G6 A2 B4) c4 | (d6 c2 A4) B4 | c16 | %10
w: |Ja- ni\-|* tor|coe\- * *|li,|Do-|ctor|or\- * * bis|pa\- * * ri-|ter,|
 z4 B8 c4- | c4 (d6 c2 B2 A2 | G8) c8 | d8 e8 | (A6 G2 A2 B2 c4) | d8 c8- | c8 (d8 | c6 B2 A4) G4 | %18
w: ju- di\-|* ces * * *|* sae-|cli, ve-|ra * * * *|mun- di|* lu\-|* * * mi-|
 A8 z4 B4 | A8 G8 | (A6 B2 c8) | A16 | z16 | B8 A8 | (G8 A8- | A4) (_B4 A4 F4 | G8) F8 | z16 | %28
w: na, per|Cru- cem|al\- * *|ter,||per Cru-|cem *|* al\- * *|* ter,||
 d8 A8 | G8 A8 | A8 B8 | A16 | z16 | z8 (e8 | d8) d4 c4- | c8 (B4 c2 B2 | A2 G2 F4) G8 | c8 (d8 | %38
w: al- ter|en- se|tri- um-|phans||vi\-|* tae se\-|* na\- * *|* * * tum|lau- re\-|
 e6 d2 c2 B2 A4) | B8 A4 (d4- | d2 c2 B2 A2 B4 c4- | c2 B2 A2 G2 F4 G4 | A12) ^G4 | (A12 ^G2 ^F2 | %44
w: |a- ti pos\-|||* si-|dent. * *|
 ^G16) |] %45
w: |
V:4
 F,8 D,8 | C,8 (D,6 E,2 | F,4 D,4 E,8 | F,8 G,8 | A,8) D,8- | D,8 z8 | z16 | z4 G,8 E,4 | %8
w: Ja- ni-|tor coe\- *|||* li,|||Do- ctor|
 (D,6 E,2 F,4) G,4 | A,12 F,4 | G,8 E,8 | F,8 G,8 | (E,8 A,8 | G,6 F,2 E,8) | D,8 F,8- | %15
w: or\- * * bis|pa- ri-|ter, ju-|di- ces|sae\- *||cli, ve\-|
 F,4 G,4 A,8- | A,8 G,8 | C,8 (D,4 E,4 | F,8) E,8 | z8 E,8 | D,8 C,8 | (D,6 E,2 F,2 G,2 A,4 | %22
w: * ra mun\-|* di|lu- mi\- *|* na,|per|Cru- cem|al\- * * * *|
 G,8 F,4 D,4) | E,8 z8 | z16 | z4 G,4 D,8 | C,8 (D,8 | F,12) E,4 | (D,6 E,2 F,8 | E,8 D,6 E,2 | %30
w: |ter,||al- ter|en- se|* tri-|um\- * *||
 F,8 E,8) | A,,8 z4 (A,4- | A,4 G,8) G,4 | (F,8 E,6 F,2 | G,8 F,8- | F,4 E,2 D,2 E,4 C,4) | %36
w: |phans, vi\-|* * tae|se\- * *|||
 D,8 C,8 | z4 F,8 (G,4- | G,4 A,6 G,2 F,4) | E,8 F,4 D,4- | D,4 E,8 C,4- | C,4 (D,8 E,4 | %42
w: na- tum|lau- re\-||a- ti pos\-|* si- dent,|* pos\- *|
 F,8) (E,8 | A,,8) E,8- | E,16 |] %45
w: * si\-|* dent.||

